components/Common/Svg/svgs/titledFirebase.svg

<svg
  width="96"
  height="137"
  viewBox="0 0 96 137"
  fill="none"
  xmlns="http://www.w3.org/2000/svg"
>
  <path
    d="M17.496 114.31V115.642H11.952V120.034H16.65V121.312H11.952V127H10.314V114.31H17.496ZM19.149 114.22C19.149 113.92 19.251 113.68 19.455 113.5C19.659 113.308 19.929 113.212 20.265 113.212C20.601 113.212 20.871 113.308 21.075 113.5C21.279 113.68 21.381 113.92 21.381 114.22C21.381 114.52 21.279 114.766 21.075 114.958C20.871 115.138 20.601 115.228 20.265 115.228C19.929 115.228 19.659 115.138 19.455 114.958C19.251 114.766 19.149 114.52 19.149 114.22ZM21.075 117.118V127H19.437V117.118H21.075ZM25.3465 119.116C25.6705 118.432 26.1445 117.904 26.7685 117.532C27.3925 117.148 28.1365 116.956 29.0005 116.956V118.738H28.4965C27.5725 118.738 26.8165 118.978 26.2285 119.458C25.6405 119.926 25.3465 120.706 25.3465 121.798V127H23.7085V117.118H25.3465V119.116ZM39.7067 121.51C39.7067 121.858 39.6827 122.158 39.6347 122.41H31.7327C31.7687 123.538 32.0867 124.384 32.6867 124.948C33.2987 125.512 34.0427 125.794 34.9187 125.794C35.7107 125.794 36.3707 125.596 36.8987 125.2C37.4387 124.792 37.7687 124.252 37.8887 123.58H39.6347C39.5147 124.264 39.2447 124.876 38.8247 125.416C38.4167 125.956 37.8827 126.376 37.2227 126.676C36.5627 126.976 35.8187 127.126 34.9907 127.126C34.0427 127.126 33.2027 126.922 32.4707 126.514C31.7387 126.106 31.1627 125.524 30.7427 124.768C30.3347 124 30.1307 123.1 30.1307 122.068C30.1307 121.036 30.3347 120.136 30.7427 119.368C31.1627 118.6 31.7387 118.012 32.4707 117.604C33.2027 117.196 34.0427 116.992 34.9907 116.992C35.9507 116.992 36.7847 117.196 37.4927 117.604C38.2127 118.012 38.7587 118.558 39.1307 119.242C39.5147 119.926 39.7067 120.682 39.7067 121.51ZM38.0507 121.618C38.0867 120.886 37.9667 120.274 37.6907 119.782C37.4147 119.29 37.0367 118.924 36.5567 118.684C36.0767 118.444 35.5547 118.324 34.9907 118.324C34.0907 118.324 33.3347 118.606 32.7227 119.17C32.1107 119.722 31.7807 120.538 31.7327 121.618H38.0507ZM47.3032 116.992C48.1792 116.992 48.9592 117.196 49.6432 117.604C50.3272 118.012 50.8612 118.6 51.2452 119.368C51.6412 120.136 51.8392 121.036 51.8392 122.068C51.8392 123.1 51.6412 124 51.2452 124.768C50.8612 125.524 50.3272 126.106 49.6432 126.514C48.9592 126.922 48.1792 127.126 47.3032 127.126C46.3432 127.126 45.5272 126.886 44.8552 126.406C44.1952 125.914 43.7392 125.272 43.4872 124.48V127H41.8492V113.68H43.4872V119.638C43.7392 118.846 44.1952 118.21 44.8552 117.73C45.5272 117.238 46.3432 116.992 47.3032 116.992ZM46.8352 118.45C46.1992 118.45 45.6232 118.6 45.1072 118.9C44.5912 119.188 44.1892 119.608 43.9012 120.16C43.6132 120.712 43.4692 121.348 43.4692 122.068C43.4692 122.788 43.6132 123.424 43.9012 123.976C44.1892 124.516 44.5912 124.936 45.1072 125.236C45.6232 125.536 46.1992 125.686 46.8352 125.686C47.8552 125.686 48.6652 125.368 49.2652 124.732C49.8772 124.084 50.1832 123.196 50.1832 122.068C50.1832 120.94 49.8772 120.058 49.2652 119.422C48.6652 118.774 47.8552 118.45 46.8352 118.45ZM58.0281 116.992C58.9881 116.992 59.7981 117.232 60.4581 117.712C61.1301 118.192 61.5981 118.834 61.8621 119.638V117.118H63.5001V127H61.8621V124.48C61.5981 125.284 61.1301 125.926 60.4581 126.406C59.7981 126.886 58.9881 127.126 58.0281 127.126C57.1521 127.126 56.3721 126.922 55.6881 126.514C55.0041 126.106 54.4641 125.524 54.0681 124.768C53.6841 124 53.4921 123.1 53.4921 122.068C53.4921 121.036 53.6841 120.136 54.0681 119.368C54.4641 118.6 55.0041 118.012 55.6881 117.604C56.3721 117.196 57.1521 116.992 58.0281 116.992ZM58.4961 118.45C57.4881 118.45 56.6781 118.774 56.0661 119.422C55.4661 120.058 55.1661 120.94 55.1661 122.068C55.1661 123.196 55.4661 124.084 56.0661 124.732C56.6781 125.368 57.4881 125.686 58.4961 125.686C59.1441 125.686 59.7201 125.536 60.2241 125.236C60.7401 124.936 61.1421 124.516 61.4301 123.976C61.7181 123.424 61.8621 122.788 61.8621 122.068C61.8621 121.348 61.7181 120.712 61.4301 120.16C61.1421 119.608 60.7401 119.188 60.2241 118.9C59.7201 118.6 59.1441 118.45 58.4961 118.45ZM69.203 116.992C70.319 116.992 71.213 117.286 71.885 117.874C72.569 118.45 72.983 119.23 73.127 120.214H71.561C71.489 119.626 71.243 119.146 70.823 118.774C70.415 118.39 69.863 118.198 69.167 118.198C68.579 118.198 68.117 118.342 67.781 118.63C67.457 118.906 67.295 119.284 67.295 119.764C67.295 120.124 67.403 120.418 67.619 120.646C67.847 120.862 68.123 121.03 68.447 121.15C68.783 121.258 69.239 121.378 69.815 121.51C70.547 121.678 71.135 121.852 71.579 122.032C72.035 122.2 72.419 122.476 72.731 122.86C73.055 123.244 73.217 123.76 73.217 124.408C73.217 125.212 72.911 125.866 72.299 126.37C71.699 126.874 70.895 127.126 69.887 127.126C68.711 127.126 67.751 126.844 67.007 126.28C66.263 125.716 65.825 124.93 65.693 123.922H67.277C67.337 124.522 67.595 125.008 68.051 125.38C68.519 125.752 69.131 125.938 69.887 125.938C70.451 125.938 70.889 125.794 71.201 125.506C71.525 125.218 71.687 124.84 71.687 124.372C71.687 123.988 71.573 123.682 71.345 123.454C71.117 123.226 70.835 123.052 70.499 122.932C70.163 122.812 69.701 122.686 69.113 122.554C68.381 122.386 67.793 122.218 67.349 122.05C66.917 121.882 66.545 121.618 66.233 121.258C65.933 120.886 65.783 120.388 65.783 119.764C65.783 118.936 66.089 118.27 66.701 117.766C67.313 117.25 68.147 116.992 69.203 116.992ZM84.4958 121.51C84.4958 121.858 84.4718 122.158 84.4238 122.41H76.5218C76.5578 123.538 76.8758 124.384 77.4758 124.948C78.0878 125.512 78.8318 125.794 79.7078 125.794C80.4998 125.794 81.1598 125.596 81.6878 125.2C82.2278 124.792 82.5578 124.252 82.6778 123.58H84.4238C84.3038 124.264 84.0338 124.876 83.6138 125.416C83.2058 125.956 82.6718 126.376 82.0118 126.676C81.3518 126.976 80.6078 127.126 79.7798 127.126C78.8318 127.126 77.9918 126.922 77.2598 126.514C76.5278 126.106 75.9518 125.524 75.5318 124.768C75.1238 124 74.9198 123.1 74.9198 122.068C74.9198 121.036 75.1238 120.136 75.5318 119.368C75.9518 118.6 76.5278 118.012 77.2598 117.604C77.9918 117.196 78.8318 116.992 79.7798 116.992C80.7398 116.992 81.5738 117.196 82.2818 117.604C83.0018 118.012 83.5478 118.558 83.9198 119.242C84.3038 119.926 84.4958 120.682 84.4958 121.51ZM82.8398 121.618C82.8758 120.886 82.7558 120.274 82.4798 119.782C82.2038 119.29 81.8258 118.924 81.3458 118.684C80.8658 118.444 80.3438 118.324 79.7798 118.324C78.8798 118.324 78.1238 118.606 77.5118 119.17C76.8998 119.722 76.5698 120.538 76.5218 121.618H82.8398Z"
    fill="#A0A0A0"
  ></path>
  <g clip-path="url(#clip0)">
    <path
      d="M55.6922 37.5608L48.8858 43.8933L42.5703 31.1539L45.8386 23.8269C46.6886 22.3394 48.0146 22.3564 48.8433 23.8269L55.6922 37.5608Z"
      fill="#ACACAC"
    ></path>
    <path
      d="M42.57 31.1538L48.8855 43.8932L23.4492 67.5551L42.57 31.1538Z"
      fill="#6A6A6A"
    ></path>
    <path
      d="M63.1357 27.8813C64.3512 26.7126 65.6092 27.1121 65.9301 28.7675L72.5516 67.2406L50.6046 80.4156C49.8396 80.8406 47.7996 81.0233 47.7996 81.0233C47.7996 81.0233 45.9423 80.8023 45.2347 80.3858L23.4492 67.5551L63.1357 27.8813Z"
      fill="#9B9B9B"
    ></path>
    <path
      d="M42.5717 31.1539L23.4531 67.5552L31.968 14.3558C32.2825 12.6983 33.226 12.5389 34.0675 14.0009L42.5717 31.1539Z"
      fill="#ACACAC"
    ></path>
  </g>
  <defs>
    <clipPath id="clip0">
      <rect
        width="68"
        height="68"
        fill="white"
        transform="translate(14 13)"
      ></rect>
    </clipPath>
  </defs>
</svg>

<svg width="96" height="137" viewBox="0 0 96 137" fill="none" xmlns="http://www.w3.org/2000/svg"><path d="M17.496 114.31v1.332h-5.544v4.392h4.698v1.278h-4.698V127h-1.638v-12.69h7.182Zm1.653-.09c0-.3.102-.54.306-.72.204-.192.474-.288.81-.288.336 0 .606.096.81.288.204.18.306.42.306.72s-.102.546-.306.738c-.204.18-.474.27-.81.27-.336 0-.606-.09-.81-.27a.969.969 0 0 1-.306-.738Zm1.926 2.898V127h-1.638v-9.882h1.638Zm4.271 1.998a3.58 3.58 0 0 1 1.422-1.584c.624-.384 1.369-.576 2.232-.576v1.782h-.503c-.924 0-1.68.24-2.268.72-.588.468-.883 1.248-.883 2.34V127H23.71v-9.882h1.637v1.998Zm14.36 2.394c0 .348-.023.648-.071.9h-7.902c.036 1.128.354 1.974.954 2.538.612.564 1.356.846 2.232.846.792 0 1.452-.198 1.98-.594.54-.408.87-.948.99-1.62h1.746a4.098 4.098 0 0 1-.81 1.836c-.408.54-.942.96-1.602 1.26-.66.3-1.404.45-2.232.45-.948 0-1.788-.204-2.52-.612a4.399 4.399 0 0 1-1.728-1.746c-.408-.768-.612-1.668-.612-2.7 0-1.032.204-1.932.612-2.7a4.37 4.37 0 0 1 1.728-1.764c.732-.408 1.572-.612 2.52-.612.96 0 1.794.204 2.502.612.72.408 1.266.954 1.638 1.638.384.684.576 1.44.576 2.268Zm-1.655.108c.036-.732-.084-1.344-.36-1.836a2.632 2.632 0 0 0-1.134-1.098 3.452 3.452 0 0 0-1.566-.36c-.9 0-1.656.282-2.268.846-.612.552-.942 1.368-.99 2.448h6.318Zm9.252-4.626c.876 0 1.656.204 2.34.612.684.408 1.218.996 1.602 1.764.396.768.594 1.668.594 2.7 0 1.032-.198 1.932-.594 2.7-.384.756-.918 1.338-1.602 1.746-.684.408-1.464.612-2.34.612-.96 0-1.776-.24-2.448-.72a3.769 3.769 0 0 1-1.368-1.926V127H41.85v-13.32h1.638v5.958a3.675 3.675 0 0 1 1.368-1.908c.672-.492 1.488-.738 2.448-.738Zm-.468 1.458c-.636 0-1.212.15-1.728.45a2.985 2.985 0 0 0-1.206 1.26c-.288.552-.432 1.188-.432 1.908s.144 1.356.432 1.908c.288.54.69.96 1.206 1.26.516.3 1.092.45 1.728.45 1.02 0 1.83-.318 2.43-.954.612-.648.918-1.536.918-2.664 0-1.128-.306-2.01-.918-2.646-.6-.648-1.41-.972-2.43-.972Zm11.193-1.458c.96 0 1.77.24 2.43.72a3.735 3.735 0 0 1 1.404 1.926v-2.52H63.5V127h-1.638v-2.52a3.735 3.735 0 0 1-1.404 1.926c-.66.48-1.47.72-2.43.72-.876 0-1.656-.204-2.34-.612-.684-.408-1.224-.99-1.62-1.746-.384-.768-.576-1.668-.576-2.7 0-1.032.192-1.932.576-2.7.396-.768.936-1.356 1.62-1.764.684-.408 1.464-.612 2.34-.612Zm.468 1.458c-1.008 0-1.818.324-2.43.972-.6.636-.9 1.518-.9 2.646s.3 2.016.9 2.664c.612.636 1.422.954 2.43.954.648 0 1.224-.15 1.728-.45.516-.3.918-.72 1.206-1.26.288-.552.432-1.188.432-1.908s-.144-1.356-.432-1.908a2.985 2.985 0 0 0-1.206-1.26c-.504-.3-1.08-.45-1.728-.45Zm10.707-1.458c1.116 0 2.01.294 2.682.882.684.576 1.098 1.356 1.242 2.34h-1.566c-.072-.588-.318-1.068-.738-1.44-.408-.384-.96-.576-1.656-.576-.588 0-1.05.144-1.386.432-.324.276-.486.654-.486 1.134 0 .36.108.654.324.882.228.216.504.384.828.504.336.108.792.228 1.368.36.732.168 1.32.342 1.764.522.456.168.84.444 1.152.828.324.384.486.9.486 1.548 0 .804-.306 1.458-.918 1.962-.6.504-1.404.756-2.412.756-1.176 0-2.136-.282-2.88-.846-.744-.564-1.182-1.35-1.314-2.358h1.584c.06.6.318 1.086.774 1.458.468.372 1.08.558 1.836.558.564 0 1.002-.144 1.314-.432.324-.288.486-.666.486-1.134 0-.384-.114-.69-.342-.918a2.243 2.243 0 0 0-.846-.522c-.336-.12-.798-.246-1.386-.378-.732-.168-1.32-.336-1.764-.504a2.804 2.804 0 0 1-1.116-.792c-.3-.372-.45-.87-.45-1.494 0-.828.306-1.494.918-1.998.612-.516 1.446-.774 2.502-.774Zm15.293 4.518c0 .348-.024.648-.072.9h-7.902c.036 1.128.354 1.974.954 2.538.612.564 1.356.846 2.232.846.792 0 1.452-.198 1.98-.594.54-.408.87-.948.99-1.62h1.746a4.098 4.098 0 0 1-.81 1.836c-.408.54-.942.96-1.602 1.26-.66.3-1.404.45-2.232.45-.948 0-1.788-.204-2.52-.612a4.399 4.399 0 0 1-1.728-1.746c-.408-.768-.612-1.668-.612-2.7 0-1.032.204-1.932.612-2.7a4.37 4.37 0 0 1 1.728-1.764c.732-.408 1.572-.612 2.52-.612.96 0 1.794.204 2.502.612.72.408 1.266.954 1.638 1.638.384.684.576 1.44.576 2.268Zm-1.656.108c.036-.732-.084-1.344-.36-1.836a2.632 2.632 0 0 0-1.134-1.098 3.452 3.452 0 0 0-1.566-.36c-.9 0-1.656.282-2.268.846-.612.552-.942 1.368-.99 2.448h6.318Z" fill="#A0A0A0"/><g clip-path="url(#a)"><path d="m55.692 37.56-6.806 6.333-6.316-12.74 3.269-7.326c.85-1.488 2.176-1.47 3.004 0l6.85 13.734Z" fill="#ACACAC"/><path d="m42.57 31.154 6.316 12.74-25.437 23.661L42.57 31.154Z" fill="#6A6A6A"/><path d="M63.136 27.881c1.215-1.168 2.473-.769 2.794.886l6.622 38.474-21.947 13.175c-.765.425-2.805.607-2.805.607s-1.858-.22-2.565-.637l-21.786-12.83L63.136 27.88Z" fill="#9B9B9B"/><path d="M42.572 31.154 23.453 67.555l8.515-53.2c.314-1.657 1.258-1.816 2.1-.354l8.504 17.153Z" fill="#ACACAC"/></g><defs><clipPath id="a"><path fill="#fff" transform="translate(14 13)" d="M0 0h68v68H0z"/></clipPath></defs></svg>
